X:1
T:Magnificat in F - Webbe
T:#
%%score { 1 | 2 } 3 4 { ( 5 6 ) | ( 7 8 ) }
L:1/8
Q:1/4=90
M:4/4
K:F
V:1 treble nm="Treble I" snm="Tr"
V:2 treble 
V:3 treble nm="Alto" snm="A"
V:4 treble nm="Bass" snm="B"
V:5 treble nm="Organ"
V:6 treble 
V:7 bass 
V:8 bass 
V:1
"^Magnificat in F""^Samuel Webbe\n(1740-1816)""^allegro" z8 |"^Duet" z2 A2 G>A B2 | %2
w: |Ma- gni- fi- cat|
 A>B c2 (dc) (BA) | A>G G2 z ccc | c2 =B2 d2 BB ||[M:4/4] c2 cc ddgf | e2 f2 (e2 Td2) | c4 z4 | %8
w: a- ni- ma me\- * a *|Do- mi- num Et ex- ul-|ta- vit spi- ri- tus|me- us in De- o sa- lu-|ta- ri me\- *|o.|
 z8 ||"^Chorus" c8 | c4 A4 ||[M:4/4] d8 | d4 B4 || B8 | B4 A4 ||[M:4/4] F8 | B4 A4 | (A4 TG4) | %18
w: |Quia~respexit~humilitatem~ancillae|su- ae:|ecce~enim~ex~hoc~beatam~me~dicent~omnes~generati-|o- nes.|Quia~fecit~mihi~magna~qui~po-|tens est,|et~sanctum|no- men|e\- *|
 F8 || z8 | z8 | z8 | z8 | z8 | z8 | z8 | z8 || z8 | z2 A2 (G>A) B2 | A>B cc (dc)BA | %30
w: jus.||||||||||Fe- cit * po-|ten- ti- am in bra\- * chi- o|
 (A>G) G2 z2 c2 | c2 =BB d2 BB | c4 d2 gf | e2 f2 (e2 Td2) | c4 z4 | z8 ||"^Chorus" c8 | c4 A4 | %38
w: su\- * o, dis-|per- sit, di- sper- sit su-|per- bos men- te|cor- dis su\- *|i.||Deposuit~potentes~de|se- de|
 d8 | d3 B B4 | B8 | B4 A4 |[M:4/4] F8 | B4 A4 | A4 TG4 | F8 || %46
w: et~exaltavit|hu- mi- les.|Esurientes~implevit|bo- nis|et~divites~di-|mi- sit|i- na-|nes.|
"^larghetto""^Solo"[Q:1/4=72] z ccc c>B B2 | BG _e2 (ec) _A2 | Fff_e (e_d)dc | %49
w: Su- sce- pit Is- ra- el|pu- e- rum su\- * um|re- cor- da- tus mi\- * se- ri|
[M:4/4][Q:1/4=72][Q:1/4=72][Q:1/4=72][Q:1/4=72] (B_A)GF c2 c2 | z8 |"^Duet" z2 A2 (G>A) B2 | %52
w: cor\- * di- ae su- ae,||Si- cut * lo-|
 A>B cc (dc) (BA) | (A>G) G2 z ccc | c2 =B2 d2 B2 | c2 c2 d>d gf | e>e f2 e2 dd | c3 c c2 z2 | %58
w: cu- tus est ad pa\- * tres *|no\- * stros, lo- cu- tus|est ad pa- tres|no- stros, A- bra- ham et|se- mi- ni e- jus in|sae- cu- la.|
 z8 ||"^Chorus"[Q:1/4=80] c8 | c3 A A4 |[M:4/4][Q:1/4=80][Q:1/4=80][Q:1/4=80][Q:1/4=80] d8 | %62
w: |Gloria~Patri,~et|Fi- li- o,|et~Spiritui|
 d4 B4 | B8 | B4 A4 | F8 | B4 A4 | (A4 TG4) | F8 |] %69
w: san- cto:|Sicut~erat~in~principio,~et~nunc,~et|sem- per,|et~in~saecula~saecu-|lo- rum.|A\- *|men.|
V:2
 z8 | z2 F2 E>F G2 | F>G A2 (BA) (GF) | F>E E2 z EEE | E2 D2 (TF3/2E/4F/4) GF || %5
w: |Ma- gni- fi- cat|a- ni- ma me\- * a *|Do- mi- num Et ex- ul-|ta- vit spi\- * * ri- tus|
[M:4/4] (EG)cc c=BBB | c2 d2 (c2 T=B2) | c4 z4 | z8 || z8 | z8 ||[M:4/4] x8 | x8 || x8 | x8 || %15
w: me\- * us in De- o sa- lu-|ta- ri me\- *|o.||||||||
[M:4/4] z8 | z8 | z8 | z8 ||"^Solo" z2 A2 f2 ed | ^c2 =BA d2 A2 | z2 FF G2 AB | A2 G2 F>E D2 | %23
w: ||||Et mi- se- ri-|cor- di- a e- jus|a pro- ge- ni- e|in pro- ge- ni- es,|
 z2 AA A2 ^GG | (^G=B) (ed) c>B A2 | z2 A2 f2 ed | (c2 T=B2) A4 || z8 | z2 F2 (E>F) G2 | %29
w: a pro- gen- ni- e|in * pro\- * ge- ni- es|ti- men- ti- bus|e\- * um.||Fe- cit * po-|
 F>G AA (BA)GF | (F>E) E2 z2 E2 | E2 DD (TF3/2E/4F/4) GF | (EG c3) =BBB | c2 d2 (c2 =B2) | c4 z4 | %35
w: ten- ti- am in bra\- * chi- o|su\- * o, dis-|per- sit, dis- per\- * * sit su-|per\- * * bos men- te|cor- dis su\- *|i.|
 z8 || z8 | z8 | z8 | z8 | z8 | z8 |[M:4/4] x8 | x8 | x8 | x8 || x8 | x8 | x8 |[M:4/4] z8 | z8 | %51
w: ||||||||||||||||
 z2 F2 (E>F) G2 | F>G AA (BA) (GF) | (F>E) E2 z EEE | E2 D2 (TF3/2E/4F/4 G)F | (EG) c2 c>=B BB | %56
w: Si- cut * lo-|cu- tus est ad pa\- * tres *|no\- * stros, lo- cu- tus|est ad pa\- * * * tres|no\- * stros, A- bra- ham et|
 c>c d2 c2 =BB | c3 c c2 z2 | z8 || z8 | z8 |[M:4/4] x8 | x8 | x8 | x8 | x8 | x8 | x8 | x8 |] %69
w: se- mi- ni e- jus in|sae- cu- la.||||||||||||
V:3
[K:C] z8 | z8 | z8 | z8 | z8 ||[K:F][M:4/4][K:treble] z8 | z8 | z8 | z8 ||"^Chorus" E8 | E4 F4 || %11
w: |||||||||Quia~respexit~humilitatem~ancillae|su- ae:|
 F8 | F4 D4 || E8 | E4 F4 || D8 | E4 F4 | (F4 TE4) | F8 || z8 | z8 | z8 | z8 |[M:4/4] z8 | z8 | %25
w: ecce~enim~ex~hoc~beatam~me~dicent~omnes~generati-|o- nes.|Quia~fecit~mihi~magna~qui~po-|tens est,|et~sanctum|no- men|e\- *|jus.|||||||
 z8 | z8 || z8 | z8 |[M:4/4] z8 | z8 | z8 | z8 | z8 |[M:4/4] z8 | z8 ||"^Chorus" E8 | E4 F4 | F8 | %39
w: |||||||||||Deposuit~potentes~de|se- de|et~exaltavit|
 F3 D D4 | E8 | E4 F4 | D8 | E4 F4 | F4 TE4 | F8 || z8 | z8 | z8 |[M:4/4] z8 | z8 | z8 | z8 | z8 | %54
w: hu- mi- les.|Esurientes~implevit|bo- nis|et~divites~di-|mi- sit|i- na-|nes.|||||||||
[M:4/4] z8 | z8 | z8 | z8 | z8 ||"^Chorus" E8 | E3 F F4 | F8 | F4 D4 | E8 | E4 F4 | D8 | E4 F4 | %67
w: |||||Gloria~Patri,~et|Fi- li- o,|et~Spiritui|san- cto:|Sicut~erat~in~principio,~et~nunc,~et|sem- per,|et~in~saecula~saecu-|lo- rum.|
 (F4 TE4) | F8 |] %69
w: A\- *|men.|
V:4
[K:C] z8 | z8 | z8 | z8 | z8 ||[K:F][M:4/4][K:bass] z8 | z8 | z8 | z8 ||"^Chorus" C,8 | C,4 F,4 || %11
w: |||||||||Quia~respexit~humilitatem~ancillae|su- ae:|
 D,8 | D,4 G,4 || C,8 | C,4 F,4 || B,8 | G,4 F,4 | C,8 | F,8 || z8 | z8 | z8 | z8 |[M:4/4] z8 | %24
w: ecce~enim~ex~hoc~beatam~me~dicent~omnes~generati-|o- nes.|Quia~fecit~mihi~magna~qui~po-|tens est,|et~sanctum|no- men|e-|jus.||||||
 z8 | z8 | z8 || z8 | z8 |[M:4/4] z8 | z8 | z8 | z8 | z8 |[M:4/4] z8 | z8 ||"^Chorus" C,8 | %37
w: ||||||||||||Deposuit~potentes~de|
 C,4 F,4 | D,8 | D,3 G, G,4 | C,8 | C,4 F,4 | B,8 | G,4 F,4 | C,4 C,4 | F,8 || z8 | z8 | z8 | %49
w: se- de|et~exaltavit|hu- mi- les.|Esurientes~implevit|bo- nis|et~divites~di-|mi- sit|i- na-|nes.||||
[M:4/4] z8 | z8 | z8 | z8 | z8 |[M:4/4] z8 | z8 | z8 | z8 | z8 ||"^Chorus" C,8 | C,3 F, F,4 | D,8 | %62
w: ||||||||||Gloria~Patri,~et|Fi- li- o,|et~Spiritui|
 D,4 G,4 | C,8 | C,4 F,4 | B,8 | G,4 F,4 | C,8 | F,8 |] %69
w: san- cto:|Sicut~erat~in~principio,~et~nunc,~et|sem- per,|et~in~saecula~saecu-|lo- rum.|A-|men.|
V:5
!mp!"^allegro" [A,CF]2 [fa]2 ([eg]>[fa] [gb]2) | [fa]2!p! [FA]2 ([EG]>[FA] [GB]2) | %2
 ([FA]>[GB] [Ac]2) ([Bd][Ac][GB][FA]) | ([FA]>[EG] [EG]2) [EGc][Ec][Ec][Ec] | %4
 ([Ec]2 [D=B]2) d2 [GB][FB] ||[M:4/4] c2 cc- [cd][=Bd][Bg][Bf] | ([ce]2 [Adf]2 [Gce]2 [F=Bd]2) | %7
 [Ec]3 z z4 | z8 || [CEGc]8 | [EGc]4 [CFA]4 || [DFAd]8 | [FAd]4 [DGB]4 || [CEGB]8 | %14
 [CEGB]4 [CFA]4 || [DF]8 | [EB]4 [FA]4 | [FA]4 [EG]4 | [A,F]8 ||!p! [DFA]2 [FA]2 ([Af]2 [Ge][Fd]) | %20
 ([E^c]2 [D=B][^CA]) [Ad]2 A2 | [A,DF]2 FF (G2 AB) | (A2 G2) ([A,DF]>[G,^CE] [F,D]2) | %23
 A2 AA (A2 ^GG) | (^G=Bed) ([EAc]>[DGB] [CA]2) | A2 A2 (f2 ed) | ([EAc]2 T[D^G=B]2) [CA]4 || %27
!mp! [A,CF]2 [fa]2 ([eg]>[fa] [gb]2) | [fa]2!p! [FA]2 ([EG]>[FA] [GB]2) | %29
 ([FA]>[GB] [Ac]2) ([Bd][Ac][GB][FA]) | ([FA]>[EG]) [EG]2 [EGc]2 [Ec]2 | %31
 [Ec]2 [D=B][DB] d2 [GB][FB] | c2 c2 d2 [_Bg][Bf] | [Gce]2 [Adf]2 ([Gce]2 T[F=Bd]2) | [Ec]3 z z4 | %35
 z8 || [CEGc]8 | [CEGc]4 [CFA]4 | [DFAd]8 | [FAd]3 [DGB] [DGB]4 | [CEGB]8 | [CEGB]4 [CFA]4 | %42
 [DF]8 | [EB]4 [FA]4 | [FA]4 [EG]4 | [A,F]8 ||"^larghetto"!p! cccc (c>B B2) | %47
 [GB][_EG] [G_e]2 (ec) [C_A]2 | (Ff)(f_e) (e_d)(dc) | (B_AGF) c2 c2 | %50
!mp! [A,CF]2 [fa]2 ([eg]>[fa] [gb]2) | [fa]2!p! [FA]2 ([EG]>[FA] [GB]2) | %52
 ([FA]>[GB]) [Ac][Ac] ([Bd][Ac][GB][FA]) | ([FA]>[EG] [EG]2) [EGc][Ec][Ec][Ec] | %54
 ([Ec]2 [D=B]2) d2 B2 | c2 c2- [cd]>[=Bd][Bg][Bf] | [ce]>[ce] [Adf]2 [Gce]2 [=Bd][Bd] | %57
 [Ec]3 z z4 | z8 || [CEGc]8 | [CEGc]3 [CFA] [CFA]4 | [DFAd]8 | [DFAd]4 [DGB]4 | [CEGB]8 | %64
 [CEGB]4 [CFA]4 | [DF]8 | [EB]4 [FA]4 | [FA]4 [EG]4 | [A,F]8 |] %69
V:6
 x8 | x8 | x8 | x8 | x4 F3/2E/4F/4 x2 ||[M:4/4] EG x6 | x8 | x8 | x8 || x8 | x8 || x8 | x8 || x8 | %14
 x8 || x8 | C8- | C4 C2 B,2 | x8 || x8 | x4 D4 | x2 D2 E4 | E4 x4 | E4 D4 | E2 [E^G]2 x4 | %25
 E4 Adc=B | x8 || x8 | x8 | x8 | x8 | x4 F3/2E/4F/4 x2 | EG c3 =B x2 | x8 | x8 | x8 || x8 | x8 | %38
 x8 | x8 | x8 | x8 | x8 | C8- | C6 B,2 | x8 || [EG]4 F4 | z4 _A2 z2 | F2 [Fc]2 [FB]2 G2 | %49
 C2 B,=B, [C=E]4 | x8 | x8 | x8 | x8 | x4 F3/2E/4F/4 GF | EG x2 x4 | x4 x2 F2 | x8 | x8 || x8 | %60
 x8 | x8 | x8 | x8 | x8 | x8 | C8- | C6 B,2 | x8 |] %69
V:7
 F,4 C4 | F,4 C,4 | F,4 B,,4 | C,4 C4 | G,4 G,,4 ||[M:4/4] C,4 G,4 | C2 F,2 G,2 G,,2 | %7
 C,3!f! [F,,F,]"^Full to 15" [E,,E,][F,,F,][D,,D,][F,,F,] | %8
 [C,,C,]2 [_B,,,_B,,]2 [A,,,A,,]3 [B,,,B,,] || C,8 | C,4 F,4 || D,8 | D,4 G,4 || C,8 | [C,F,]8 || %15
 B,8 | G,4 F,4 | C,8- | [F,,C,F,]8 || x8 | x8 | x4 (B,2 A,G,) | x8 | [=C,A,]4 =B,,4 | %24
 E,4 [A,,A,]4 | C,4 D,4 | E,2 [E,,E,]2- [A,,E,]4 || F,4 B,4 | F,4 C,4 | F,4 B,,4 | C,4 C4 | %31
 G,4 G,,4 | C,4 G,4 | C2 F,2 G,2 G,,2 | C,3!f! [F,,F,] [E,,E,][F,,F,][D,,D,][F,,F,] | %35
 [C,,C,]2 [_B,,,_B,,]2 [A,,,A,,]3 [B,,,B,,] || C,8 | C,4 F,4 | D,8 | D,3 G, G,4 | C,8 | C,4 F,4 | %42
 B,8 | G,4 F,4 | C,8- | [F,,C,F,]8 || C,4 _D,4 | _E,4 _A,,4 | _D2 =A,2 B,2 !courtesy!=E,2 | %49
 F,2 _D,2 C,4 | F,4 C4 | F,4 C,4 | F,4 B,,4 | C,4 C4 | G,4 G,,4 | C,4 G,4 | C2 F,2 G,2 G,,2 | %57
 C,3!f! [F,,F,] [E,,E,][F,,F,][D,,D,][F,,F,] | [C,,C,]2 [B,,,B,,]2 T[A,,,A,,]3 [B,,,B,,] || C,8 | %60
 C,3 F, F,4 | D,8 | D,4 G,4 | C,8 | C,4 F,4 | B,8 | G,4 F,4 | C,8 | F,8 |] %69
V:8
 x8 | x8 | x8 | x8 | x8 ||[M:4/4] x8 | x8 | x8 | x8 || x8 | x8 || x8 | x8 || x8 | x8 || x8 | x8 | %17
 x8 | x8 || D,8 | A,4 F,4 | D,4 E,4 | [^C,A,]4 D,4 | x8 | x8 | x8 | x8 || x8 | x8 | x8 | x8 | x8 | %32
 x8 | x8 | x8 | x8 || x8 | x8 | x8 | x8 | x8 | x8 | x8 | x8 | x8 | x8 || x8 | x8 | x8 | x8 | x8 | %51
 x8 | x8 | x8 | x8 | x8 | x8 | x8 | x8 || x8 | x8 | x8 | x8 | x8 | x8 | x8 | x8 | x8 | x8 |] %69

